X: 14680
T: Gan Ainm
R: polka
M: 2/4
K: Dmajor
|:dA FA|BG GF/G/|AG ED|BA AB/c/|
dA FA|BG GF/G/|AG EC|1 ED DA/B/:|2 ED D2||
|:AA/B/ d/e/f/g/|aa fd/f/|gg ed/e/|ff dc/B/|
AA/B/ d/e/f/g/|aa fd/f/|ge be|1 ed dB:|2 ed dB/c/||

